X:1
T:F# minor James P. Carrell, 1821
T:Charles Wesley, 1758 Hymns of Intercession No. 39         87. 87. 47.
T:Judgment
T:Transcribed from Songs of Zion, 1821
%%score [ 1 2 3 4 ]
L:1/8
M:2/4
K:A
V:1 treble nm="Tr." snm="Tr."
V:2 treble nm="C." snm="C."
V:3 treble-8 nm="T." snm="T."
V:4 bass nm="B." snm="B."
V:1
"^1. Lo,  he  comes,    Lo,  he    comes,      Lo, he comes with clouds descending,  Once for favored sinners  slain;  Thousand  thousand" z4 | %1
 z4 | A2 BA | G3 z | A3 F | A2 c2 | e2 e2 | e2 d2 | c3 B | c2 e2 | c2 c2 | c4 | c3 d | c2 c2 | %14
"^1. saints at–ten–ding  Swell the tri–umph of  his  train.  Hal – le –  lu – jah,        Hal    –    le  –  lu – jah,  God  ap–pears  on  earth  to  reign." e2 e2 | %15
 e2 fe | c2 A2 | B2 cd | e2 fe | c4 | c2 cd | e2 e z | cd cB | A2 A z | f2 e2 | e2 f2 | e2 c2 | %27
 c4 |] %28
V:2
"^2. Eve – ry  eye,      Eve – ry    eye,        Eve – ry   eye   shall   now be–hold  him,  Robed  in  dreadful  ma–jes–ty:   Those  who  set  at" z4 | %1
 z4 | A2 BA | G3 z | A3 A | F2 F2 | G2 G2 | A2 B2 | A3 B | c2 G2 | F2 E2 | F4 | A3 G | F2 C2 | %14
"^2. naught and sold him, Pierced and nailed him to the tree, Deeply  wailing,     Deep  –   ly   wailing,    Shall  the  true   Mes – si–  ah   see." C2 EF | %15
 E2 E2 | F2 F2 | G2 A2 | E2 FG | F4 | F2 F2 | E2 E z | FG AB | c2 c z | A2 A2 | G2 CD | E2 E2 | %27
 F4 |] %28
V:3
"^3. Dear to–kens,    Dear  to – kens,      The  dear   to  –  kens   of    his  passion   Still  his  dazzling  bo – dy  bears,  Cause  of  end–less" F2 EF | %1
 C3 z | A2 GF | G3 z | c3 d | c>B A2 | B2 AB | c2 G2 | A3 G | F2 E2 | A2 GE | F4 | A3 B | c2 ed | %14
"^3. ex – ul  – ta – tion    To  his  ransomed  worshippers:   With what  rapture    With   what  rapture      Gaze we  on those  glorious scars!" c2 B2 | %15
 c2 c2 | A2 c2 | e2 fe | c2 B2 | c4 | A2 AF | G2 G z | cB cd | c2 c z | F2 A2 | Bc dB | A2 G2 | %27
 F4 |] %28
V:4
"^4. Yea!  A – men,    Yea!  A   –   men,      Yea,   A –  men,   let     all    a –dore thee,  High  on   thy  e – ter– nal  throne;  Sa–vior,  take   the" z4 | %1
 z4 | F,2 E,F, | C,3 z | F,3 F, | F,2 F,2 | E,2 E,2 | A,2 G,2 | F,3 G, | A,2 E,2 | F,2 C,2 | F,4 | %12
 F,3 G, | A,2 A,2 | %14
"^4. power and  glory,   Claim the kingdom for thine own!  Jah, Je –  ho–vah,       Jah, ____    Je–ho–vah,      E–ver–las–ting  God, come down!" E,2 E,2 | %15
 C,2 C,2 | F,2 A,2 | %17
"^_____________________________________________________\nEdited by B. C. Johnston, 2017\n   1. Measure 14, Counter: second note changed from F# to C#." G,2 F,E, | %18
 A,2 F,2 | F,4 | F,2 F,2 | E,2 E, z | CB, A,G, | F,2 F, z | F,2 C,2 | E,2 A,B, | C2 C,2 | F,4 |] %28

